16x16/actions/structure.svg

<svg viewBox="0 0 16 16" xmlns="http://www.w3.org/2000/svg"><path d="m2 2v5h4v5h3v2h5v-5h-5v2h-2v-6h2v2h5v-5h-5v2h-2v-2zm1 1h3v3h-3zm7 0h3v3h-3z" fill="#8b9cbe"/></svg>

<svg viewBox="0 0 16 16" xmlns="http://www.w3.org/2000/svg">
    <path d="M2 2v5h4v5h3v2h5V9H9v2H7V5h2v2h5V2H9v2H7V2zm1 1h3v3H3zm7 0h3v3h-3z" fill="#f4f4f7"/>
</svg>
